X: 2137
T: the DUCHESS OF GORDON
C:
Q: "Strathspey."
R: Strathspey.
%R: strathspey
B: James Kerr "Merry Melodies" v.2 p.17 #137
Z: 2016 John Chambers <jc:trillian.mit.edu>
M: C
L: 1/8
K: D
ud |\
vA<DA>uF vA<DD>ud | vA<DA>uF vB<EE>ud |\
vA<DA>ud vB>vduA>ud | B>dA>g f<d-d :|\
uf |\
vd>vAuF>uA D<Ad>uB |
vA<DA>uF vE<ee>uf |\
[1 vd>vAuF>uA D>AF>A | d<BA>F A<dd :|\
[2 vf<ae>uf vd>uBA<F | B/c/d/B/ vA>uF A<d-d |]
